resources/haticons/SVG/format_list_bulleted.svg

<!-- Generated by IcoMoon.io -->
<svg version="1.1" xmlns="http://www.w3.org/2000/svg" width="24" height="24" viewBox="0 0 24 24">
<title>format_list_bulleted</title>
<path d="M6.984 5.016h14.016v1.969h-14.016v-1.969zM6.984 12.984v-1.969h14.016v1.969h-14.016zM6.984 18.984v-1.969h14.016v1.969h-14.016zM3.984 16.5q0.609 0 1.055 0.445t0.445 1.055-0.445 1.055-1.055 0.445-1.055-0.445-0.445-1.055 0.445-1.055 1.055-0.445zM3.984 4.5q0.609 0 1.055 0.422t0.445 1.078-0.445 1.078-1.055 0.422-1.055-0.422-0.445-1.078 0.445-1.078 1.055-0.422zM3.984 10.5q0.609 0 1.055 0.422t0.445 1.078-0.445 1.078-1.055 0.422-1.055-0.422-0.445-1.078 0.445-1.078 1.055-0.422z"></path>
</svg>

<svg xmlns="http://www.w3.org/2000/svg" width="24" height="24"><path d="M6.984 5.016H21v1.969H6.984V5.016zm0 7.968v-1.969H21v1.969H6.984zm0 6v-1.969H21v1.969H6.984zm-3-2.484q.609 0 1.055.445T5.484 18t-.445 1.055-1.055.445-1.055-.445T2.484 18t.445-1.055 1.055-.445zm0-12q.609 0 1.055.422T5.484 6t-.445 1.078-1.055.422-1.055-.422T2.484 6t.445-1.078T3.984 4.5zm0 6q.609 0 1.055.422T5.484 12t-.445 1.078-1.055.422-1.055-.422T2.484 12t.445-1.078 1.055-.422z"/></svg>
